X: 15760
T: Good For The Tongue
R: hornpipe
M: 4/4
K: Gmajor
|:D>F|G2 B>c d>GF>G|e2 f>G g>GF>G|E>cD>B c>AF>G|A>Bc>A G>FE>D|
G>AB>c d2 F>G|e>Gf>G g2 F>G|e>cd>B c>AF>G|B>AE>F G2:|
|:(3ABc|d>GF>G e>GF>G|g>fg>e d>BG>B|c>de>d c2 (3BAG|F>d^c>d =c>AF>D|
G2 (3ABc d2 F>G|e>Gf>G g2 f>g|e>cd>B c>A (3EFG|(3ABA E>F G2:|

